X: 1494
T: Are You Willing?   #2
T: an do'toile?
R: reel
B: O'Neill "Music of Ireland" 1850 #1494
O: Fielding
Z: transcribed by John B. Walsh, 8/22/96
M: C|
L: 1/8
K: A
|: A2(EA) FAEA | AAcA BABc |1 A2(EA) FAEA | faed cABc :|2 defg Tagae | fdBe cAA2 |]
|: agae  Tfece | dBcA BAFA |1 Tagae  fgae | fdBe cAAg :|2 A,CEA ceae | fdBe cAA2 |]
